web/ui/src/components/theme/button/svgs/clear.svg

<svg fill="none" height="16" viewBox="0 0 16 16" width="16" xmlns="http://www.w3.org/2000/svg"><g fill="#2e8de6"><path d="m3.5999 8.3999v5h8.8v-5h1.2v5.6c0 .3314-.2686.6-.6.6h-10c-.33137 0-.6-.2686-.6-.6v-5.6z"/><path d="m5.3999 1.9999c0-.33137.26863-.6.6-.6h4c.3314 0 .6.26863.6.6v1.4h3.4c.3314 0 .6.26863.6.6v4c0 .33137-.2686.6-.6.6h-12c-.33137 0-.6-.26863-.6-.6v-4c0-.33137.26863-.6.6-.6h3.4zm1.2.6v1.4c0 .33137-.26863.6-.6.6h-3.4v2.8h10.8v-2.8h-3.4c-.33137 0-.6-.26863-.6-.6v-1.4z"/><path d="m5.3334 10.0667c.33137 0 .6.2686.6.6v3.3333c0 .3314-.26863.6-.6.6s-.6-.2686-.6-.6v-3.3333c0-.3314.26863-.6.6-.6z"/></g></svg>

<svg width="16" height="16" viewBox="0 0 16 16" fill="none" xmlns="http://www.w3.org/2000/svg">
<path d="M3.5999 8.3999V13.3999H12.3999V8.3999H13.5999V13.9999C13.5999 14.3313 13.3313 14.5999 12.9999 14.5999H2.9999C2.66853 14.5999 2.3999 14.3313 2.3999 13.9999V8.3999H3.5999Z" fill="#2E8DE6"/>
<path d="M5.3999 1.9999C5.3999 1.66853 5.66853 1.3999 5.9999 1.3999H9.9999C10.3313 1.3999 10.5999 1.66853 10.5999 1.9999V3.3999H13.9999C14.3313 3.3999 14.5999 3.66853 14.5999 3.9999V7.9999C14.5999 8.33127 14.3313 8.5999 13.9999 8.5999H1.9999C1.66853 8.5999 1.3999 8.33127 1.3999 7.9999V3.9999C1.3999 3.66853 1.66853 3.3999 1.9999 3.3999H5.3999V1.9999ZM6.5999 2.5999V3.9999C6.5999 4.33127 6.33127 4.5999 5.9999 4.5999H2.5999V7.3999H13.3999V4.5999H9.9999C9.66853 4.5999 9.3999 4.33127 9.3999 3.9999V2.5999H6.5999Z" fill="#2E8DE6"/>
<path d="M5.3334 10.0667C5.66477 10.0667 5.9334 10.3353 5.9334 10.6667V14C5.9334 14.3314 5.66477 14.6 5.3334 14.6C5.00203 14.6 4.7334 14.3314 4.7334 14V10.6667C4.7334 10.3353 5.00203 10.0667 5.3334 10.0667Z" fill="#2E8DE6"/>
</svg>
